icons/desktop/20/history-20.svg

<svg width="20" height="20" viewBox="0 0 20 20" fill="none" xmlns="http://www.w3.org/2000/svg">
<path d="M9.875 5.00098C10.358 5.00098 10.75 5.39298 10.75 5.87598V9.93262C10.75 10.0766 10.8271 10.2112 10.9521 10.2832L13.5615 11.79C13.9805 12.032 14.1238 12.5674 13.8818 12.9854C13.7198 13.2661 13.4259 13.4228 13.123 13.4229L13.124 13.4219C12.976 13.4219 12.8245 13.3837 12.6865 13.3047L10.0771 11.7979C9.41315 11.4149 9 10.6996 9 9.93262V5.87598C9 5.39298 9.392 5.00098 9.875 5.00098Z" fill="black"/>
<path fill-rule="evenodd" clip-rule="evenodd" d="M10 0C15.5228 0 20 4.47715 20 10C20 15.5228 15.5228 20 10 20C4.47715 20 0 15.5228 0 10C0 4.47715 4.47715 0 10 0ZM10 1.75C5.44365 1.75 1.75 5.44365 1.75 10C1.75 14.5563 5.44365 18.25 10 18.25C14.5563 18.25 18.25 14.5563 18.25 10C18.25 5.44365 14.5563 1.75 10 1.75Z" fill="black"/>
</svg>

<!-- This Source Code Form is subject to the terms of the Mozilla Public
   - License, v. 2.0. If a copy of the MPL was not distributed with this
   - file, You can obtain one at http://mozilla.org/MPL/2.0/. -->
<svg xmlns="http://www.w3.org/2000/svg" width="20" height="20" fill="context-fill" fill-opacity="context-fill-opacity" viewBox="0 0 20 20">
    <path d="M9.875 5.001c.483 0 .875.392.875.875v4.057c0 .144.077.278.202.35l2.61 1.507a.875.875 0 0 1-.439 1.633l.001-.001a.9.9 0 0 1-.437-.117l-2.61-1.507A2.16 2.16 0 0 1 9 9.933V5.876c0-.483.392-.875.875-.875" />
    <path fill-rule="evenodd" d="M10 0c5.523 0 10 4.477 10 10s-4.477 10-10 10S0 15.523 0 10 4.477 0 10 0m0 1.75a8.25 8.25 0 1 0 0 16.5 8.25 8.25 0 0 0 0-16.5" clip-rule="evenodd" />
</svg>
